public/assets/zendesk.svg

<svg width="142" height="50" viewBox="0 0 142 50" fill="none" xmlns="http://www.w3.org/2000/svg">
<rect x="141.5" y="49.5" width="141" height="49" rx="6.5" transform="rotate(-180 141.5 49.5)" fill="white" stroke="url(#paint0_linear_2329_168)"/>
<rect x="13" y="5" width="40" height="40" rx="8" fill="white"/>
<path d="M32.0524 20.6623V34.5843H20.5547L32.0524 20.6623ZM32.0524 15.668C32.0524 18.8496 29.4823 21.4269 26.3097 21.4269C23.137 21.4269 20.5547 18.8496 20.5547 15.668H32.0524ZM33.9463 34.5848C33.9463 31.4032 36.5163 28.8259 39.6889 28.8259C42.8616 28.8259 45.4316 31.4032 45.4316 34.5848H33.9463ZM33.9463 29.5905V15.668H45.4436L33.9463 29.5905Z" fill="#03363D"/>
<path d="M57.7 30V29.776L63.027 21.103H57.91V19.92H65.127V20.158L59.828 28.817H65.057V30H57.7ZM70.088 30.21C69.346 30.21 68.6974 30.0467 68.142 29.72C67.5914 29.3887 67.162 28.929 66.854 28.341C66.546 27.7483 66.392 27.0577 66.392 26.269C66.392 25.443 66.5437 24.729 66.847 24.127C67.1504 23.5203 67.5727 23.0537 68.114 22.727C68.66 22.3957 69.2994 22.23 70.032 22.23C70.7927 22.23 71.439 22.405 71.971 22.755C72.5077 23.105 72.909 23.6043 73.175 24.253C73.4457 24.9017 73.5624 25.674 73.525 26.57H72.265V26.122C72.251 25.1933 72.062 24.5003 71.698 24.043C71.334 23.581 70.7927 23.35 70.074 23.35C69.304 23.35 68.7184 23.5973 68.317 24.092C67.9157 24.5867 67.715 25.296 67.715 26.22C67.715 27.1113 67.9157 27.802 68.317 28.292C68.7184 28.782 69.29 29.027 70.032 29.027C70.5314 29.027 70.9654 28.9127 71.334 28.684C71.7027 28.4553 71.992 28.1263 72.202 27.697L73.399 28.11C73.105 28.7773 72.6617 29.2953 72.069 29.664C71.481 30.028 70.8207 30.21 70.088 30.21ZM67.295 26.57V25.569H72.881V26.57H67.295ZM80.2614 30V26.213C80.2614 25.8537 80.2288 25.5083 80.1634 25.177C80.1028 24.8457 79.9931 24.5493 79.8344 24.288C79.6804 24.022 79.4704 23.812 79.2044 23.658C78.9431 23.504 78.6118 23.427 78.2104 23.427C77.8978 23.427 77.6131 23.4807 77.3564 23.588C77.1044 23.6907 76.8874 23.8493 76.7054 24.064C76.5234 24.2787 76.3811 24.5493 76.2784 24.876C76.1804 25.198 76.1314 25.5783 76.1314 26.017L75.3124 25.765C75.3124 25.0323 75.4431 24.4047 75.7044 23.882C75.9704 23.3547 76.3414 22.951 76.8174 22.671C77.2981 22.3863 77.8628 22.244 78.5114 22.244C79.0014 22.244 79.4191 22.321 79.7644 22.475C80.1098 22.629 80.3968 22.8343 80.6254 23.091C80.8541 23.343 81.0338 23.6277 81.1644 23.945C81.2951 24.2577 81.3861 24.5773 81.4374 24.904C81.4934 25.226 81.5214 25.5317 81.5214 25.821V30H80.2614ZM74.8714 30V22.44H75.9914V24.463H76.1314V30H74.8714ZM86.241 30.21C85.5363 30.21 84.932 30.035 84.428 29.685C83.924 29.3303 83.5343 28.852 83.259 28.25C82.9883 27.648 82.853 26.969 82.853 26.213C82.853 25.457 82.9883 24.778 83.259 24.176C83.5343 23.574 83.924 23.1003 84.428 22.755C84.932 22.405 85.534 22.23 86.234 22.23C86.948 22.23 87.5476 22.4027 88.033 22.748C88.5183 23.0933 88.8846 23.567 89.132 24.169C89.384 24.771 89.51 25.4523 89.51 26.213C89.51 26.9643 89.384 27.6433 89.132 28.25C88.8846 28.852 88.5183 29.3303 88.033 29.685C87.5476 30.035 86.9503 30.21 86.241 30.21ZM86.395 29.069C86.9036 29.069 87.3213 28.9477 87.648 28.705C87.9746 28.4577 88.215 28.1193 88.369 27.69C88.5276 27.256 88.607 26.7637 88.607 26.213C88.607 25.653 88.5276 25.1607 88.369 24.736C88.215 24.3067 87.977 23.973 87.655 23.735C87.333 23.4923 86.9246 23.371 86.43 23.371C85.9166 23.371 85.492 23.497 85.156 23.749C84.8246 24.001 84.5773 24.3417 84.414 24.771C84.2553 25.2003 84.176 25.681 84.176 26.213C84.176 26.7497 84.2576 27.235 84.421 27.669C84.5843 28.0983 84.8293 28.439 85.156 28.691C85.4873 28.943 85.9003 29.069 86.395 29.069ZM88.607 30V24.435H88.467V19.92H89.72V30H88.607ZM94.9572 30.21C94.2152 30.21 93.5665 30.0467 93.0112 29.72C92.4605 29.3887 92.0312 28.929 91.7232 28.341C91.4152 27.7483 91.2612 27.0577 91.2612 26.269C91.2612 25.443 91.4128 24.729 91.7162 24.127C92.0195 23.5203 92.4418 23.0537 92.9832 22.727C93.5292 22.3957 94.1685 22.23 94.9012 22.23C95.6618 22.23 96.3082 22.405 96.8402 22.755C97.3768 23.105 97.7782 23.6043 98.0442 24.253C98.3148 24.9017 98.4315 25.674 98.3942 26.57H97.1342V26.122C97.1202 25.1933 96.9312 24.5003 96.5672 24.043C96.2032 23.581 95.6618 23.35 94.9432 23.35C94.1732 23.35 93.5875 23.5973 93.1862 24.092C92.7848 24.5867 92.5842 25.296 92.5842 26.22C92.5842 27.1113 92.7848 27.802 93.1862 28.292C93.5875 28.782 94.1592 29.027 94.9012 29.027C95.4005 29.027 95.8345 28.9127 96.2032 28.684C96.5718 28.4553 96.8612 28.1263 97.0712 27.697L98.2682 28.11C97.9742 28.7773 97.5308 29.2953 96.9382 29.664C96.3502 30.028 95.6898 30.21 94.9572 30.21ZM92.1642 26.57V25.569H97.7502V26.57H92.1642ZM102.809 30.203C101.908 30.203 101.168 30.007 100.59 29.615C100.016 29.2183 99.6633 28.6653 99.5327 27.956L100.807 27.753C100.909 28.1637 101.145 28.4903 101.514 28.733C101.882 28.971 102.34 29.09 102.886 29.09C103.404 29.09 103.81 28.9827 104.104 28.768C104.398 28.5533 104.545 28.2617 104.545 27.893C104.545 27.6783 104.496 27.5057 104.398 27.375C104.3 27.2397 104.097 27.1137 103.789 26.997C103.485 26.8803 103.026 26.7403 102.41 26.577C101.742 26.3997 101.217 26.2153 100.835 26.024C100.452 25.8327 100.179 25.611 100.016 25.359C99.8523 25.107 99.7707 24.8013 99.7707 24.442C99.7707 23.9987 99.892 23.6113 100.135 23.28C100.377 22.944 100.716 22.685 101.15 22.503C101.588 22.321 102.097 22.23 102.676 22.23C103.25 22.23 103.763 22.321 104.216 22.503C104.668 22.685 105.032 22.944 105.308 23.28C105.588 23.6113 105.753 23.9987 105.805 24.442L104.531 24.673C104.47 24.267 104.274 23.9473 103.943 23.714C103.616 23.4807 103.194 23.357 102.676 23.343C102.186 23.3243 101.787 23.4107 101.479 23.602C101.175 23.7933 101.024 24.0523 101.024 24.379C101.024 24.561 101.08 24.7173 101.192 24.848C101.308 24.9787 101.521 25.1023 101.829 25.219C102.141 25.3357 102.594 25.4687 103.187 25.618C103.854 25.786 104.379 25.9703 104.762 26.171C105.149 26.367 105.424 26.6003 105.588 26.871C105.751 27.137 105.833 27.466 105.833 27.858C105.833 28.586 105.564 29.16 105.028 29.58C104.491 29.9953 103.751 30.203 102.809 30.203ZM107.369 30L107.376 19.92H108.636V26.08L111.807 22.44H113.424L110.085 26.22L113.816 30H112.073L108.636 26.36V30H107.369Z" fill="#475367"/>
<defs>
<linearGradient id="paint0_linear_2329_168" x1="211" y1="49" x2="211" y2="97" gradientUnits="userSpaceOnUse">
<stop stop-color="#E4E7EC"/>
<stop offset="1" stop-color="white"/>
</linearGradient>
</defs>
</svg>

<svg xmlns="http://www.w3.org/2000/svg" width="142" height="50" fill="none" xmlns:v="https://vecta.io/nano"><g fill="#fff"><rect x="141.5" y="49.5" width="141" height="49" rx="6.5" transform="rotate(180 141.5 49.5)" stroke="url(#A)"/><rect x="13" y="5" width="40" height="40" rx="8"/></g><path d="M32.052 20.662v13.922H20.555l11.498-13.922zm0-4.994a5.75 5.75 0 0 1-5.743 5.759 5.76 5.76 0 0 1-5.755-5.759h11.498zm1.894 18.917a5.75 5.75 0 0 1 5.743-5.759 5.75 5.75 0 0 1 5.743 5.759H33.946zm0-4.994V15.668h11.497L33.946 29.591z" fill="#03363d"/><path d="M57.7 30v-.224l5.327-8.673H57.91V19.92h7.217v.238l-5.299 8.659h5.229V30H57.7zm12.388.21c-.742 0-1.391-.163-1.946-.49s-.98-.791-1.288-1.379-.462-1.283-.462-2.072c0-.826.152-1.54.455-2.142s.726-1.073 1.267-1.4 1.185-.497 1.918-.497c.761 0 1.407.175 1.939.525s.938.849 1.204 1.498.387 1.421.35 2.317h-1.26v-.448c-.014-.929-.203-1.622-.567-2.079s-.905-.693-1.624-.693c-.77 0-1.356.247-1.757.742s-.602 1.204-.602 2.128c0 .891.201 1.582.602 2.072s.973.735 1.715.735c.499 0 .933-.114 1.302-.343s.658-.558.868-.987l1.197.413a3.39 3.39 0 0 1-1.33 1.554c-.588.364-1.248.546-1.981.546zm-2.793-3.64v-1.001h5.586v1.001h-5.586zM80.261 30v-3.787a5.34 5.34 0 0 0-.098-1.036c-.061-.331-.17-.628-.329-.889a1.7 1.7 0 0 0-.63-.63c-.261-.154-.593-.231-.994-.231-.313 0-.597.054-.854.161a1.67 1.67 0 0 0-.651.476 2.31 2.31 0 0 0-.427.812c-.098.322-.147.702-.147 1.141l-.819-.252c0-.733.131-1.36.392-1.883a2.86 2.86 0 0 1 1.113-1.211c.481-.285 1.045-.427 1.694-.427.49 0 .908.077 1.253.231s.632.359.861.616.408.537.539.854.222.632.273.959a5.36 5.36 0 0 1 .084.917V30h-1.26zm-5.39 0v-7.56h1.12v2.023h.14V30h-1.26zm11.37.21c-.705 0-1.309-.175-1.813-.525s-.894-.833-1.169-1.435-.406-1.281-.406-2.037.135-1.435.406-2.037.665-1.076 1.169-1.421 1.106-.525 1.806-.525c.714 0 1.314.173 1.799.518s.852.819 1.099 1.421.378 1.283.378 2.044c0 .751-.126 1.43-.378 2.037s-.614 1.08-1.099 1.435-1.083.525-1.792.525zm.154-1.141c.509 0 .926-.121 1.253-.364s.567-.586.721-1.015.238-.926.238-1.477c0-.56-.079-1.052-.238-1.477s-.392-.763-.714-1.001-.73-.364-1.225-.364c-.513 0-.938.126-1.274.378s-.579.593-.742 1.022-.238.91-.238 1.442.082 1.022.245 1.456.408.77.735 1.022.744.378 1.239.378zm2.212.931v-5.565h-.14V19.92h1.253V30h-1.113zm6.35.21c-.742 0-1.391-.163-1.946-.49a3.43 3.43 0 0 1-1.288-1.379c-.308-.593-.462-1.283-.462-2.072 0-.826.152-1.54.455-2.142s.726-1.073 1.267-1.4 1.185-.497 1.918-.497c.761 0 1.407.175 1.939.525s.938.849 1.204 1.498.387 1.421.35 2.317h-1.26v-.448c-.014-.929-.203-1.622-.567-2.079s-.905-.693-1.624-.693c-.77 0-1.356.247-1.757.742s-.602 1.204-.602 2.128c0 .891.201 1.582.602 2.072s.973.735 1.715.735c.499 0 .933-.114 1.302-.343s.658-.558.868-.987l1.197.413a3.39 3.39 0 0 1-1.33 1.554c-.588.364-1.248.546-1.981.546zm-2.793-3.64v-1.001h5.586v1.001h-5.586zm10.645 3.633c-.901 0-1.641-.196-2.219-.588a2.48 2.48 0 0 1-1.057-1.659l1.274-.203c.102.411.338.737.707.98s.826.357 1.372.357c.518 0 .924-.107 1.218-.322s.441-.506.441-.875c0-.215-.049-.387-.147-.518s-.301-.261-.609-.378-.763-.257-1.379-.42c-.668-.177-1.193-.362-1.575-.553s-.656-.413-.819-.665-.245-.558-.245-.917c0-.443.121-.831.364-1.162s.581-.595 1.015-.777.947-.273 1.526-.273c.574 0 1.087.091 1.54.273s.816.441 1.092.777.445.719.497 1.162l-1.274.231c-.061-.406-.257-.726-.588-.959s-.749-.357-1.267-.371c-.49-.019-.889.068-1.197.259s-.455.45-.455.777c0 .182.056.338.168.469s.329.254.637.371.765.25 1.358.399c.667.168 1.192.352 1.575.553s.662.429.826.7.245.595.245.987c0 .728-.269 1.302-.805 1.722s-1.277.623-2.219.623zm4.56-.203l.007-10.08h1.26v6.16l3.171-3.64h1.617l-3.339 3.78 3.731 3.78h-1.743l-3.437-3.64V30h-1.267z" fill="#475367"/><defs><linearGradient id="A" x1="211" y1="49" x2="211" y2="97" gradientUnits="userSpaceOnUse"><stop stop-color="#e4e7ec"/><stop offset="1" stop-color="#fff"/></linearGradient></defs></svg>
